X: 100167
M: C|
L: 1/16
K: A
u(c>B) |\
{AB}c2E2E2F2 (A3B)A2c2 | (B3c) dcBA {AB}c2F2F2 (c>B) |\
{AB}c2E2E2F2 (A3B)A2 ag | f3e fgae c2A2A2 (cB) |
{AB}c2E2E2F2 (A3B) (Ac)ec | Bdce dcBA {AB}c2F2F2 (c>B) |\
{AB}c2E2E2F2 (A3B) (Ae)ae | (f3{gf}e) (dc)Be c2A2A2e2 |
(f>{gf}e)fg a2c2 (d>c)de f2A2 | B>ABc dcBA {AB}c2F2F2 (c>B) |\
{AB}c2E2E2(FG) (A3B) (Ae)ag | (f3{gf}e) (fg)ae c2A2A2 |]
[|\
u(c>B) |\
aece fece aece fece | agfe dcBA {AB}c2F2F2 (c>B) |\
[|\
u(c>B) |\
~f2af e2ac d2bd c2aA | (.B>.d)(.c>.e) (.d>.c)B>A {AB}c2F2F2 (c>B) |\
[|\
u(c>B) |\
{AB}c2E2E2F2 (A3B)A2c2 | {c}(BA)Bc dcBA {AB}c2F2F2 (c>B) |\
{AB}c2E2(E2F2) (A3B)A2 (a/g/f/e/) | (f/e/d/c/ d/c/B/A/) (G/A/B/A/ G/F/E/D/) C2A,2A,2e2 |
fdf(g/a/) e3c dbB(c/d/) c3A | {c}BABc dcBA {AB}c2F2F2 (c>B) |\
{AB}c2E2(E2F2) (A3B)A2 (a/g/f/e/) | (f/e/d/c/ d/c/B/A/) (G/A/B/A/ G/F/E/D/) C2A,2 A,2 |]
[|\
u(c>B) || (3AcB (3AGF (3EAE (3FAF (3EDC (3DCB, (3CB,A, (3ABc |\
(3B^AB (3cBc (3dcB (3cB=A {AB}c2F2F2 (c>B) |\
(3AcB (3AGF (3EAE (3FAF (3EDC (3DCB, (3CB,A, (3ecA |
(3fag (3fed (3cBA (3Bed  c2A2A2 (ef/g/) |\
(3aec (3aec (3aec (3fec (3aec (3aec (3aec (3fec |\
(3agf (3efg (3agf (3edc {de}f2F2F2 (c>B) |
(3AEC (3AEC (3AEC (3FEC  (3AEC (3AEC (3AEC (3FEC |\
(3AGF (3EFG (3AGF (3EFD C2A,2A,2 |][| u(c>B) |\
cd zuB dcBA {AB}c2F2F2 (c>B) |\
(f/g/a/g/ f/e/d/c/ B).e.^d.=d c2A2A2 (cd/e/) |
(f3a)e2c2 (d3b)c2 ((3aec) |\
(f/g/a/g/ f/e/d/c/ B).e.^d.=d c2A2A2 |][| u(c>B) |\
f2(.d>.d) B2(.e>.e) c2(.A>.A) A2(ef/g/) |\
a2(.a>.a) (.a>.g)(.f>.e) a2(.a>.a) (.a>.g)(.f>.e) |
(.a>.g)(.f>.e) (.d>.c)(.B>.A) {AB}c2(.F>.F) F2(c>B) |\
f2(.d>.d) B2(.e>.e) c2(.A>.A) "_Fine."A2 |]


